resources/icons/svg/keybinding.svg

<svg xmlns="http://www.w3.org/2000/svg" xmlns:xlink="http://www.w3.org/1999/xlink" width="48" height="48">
  <defs>
    <linearGradient id="j">
      <stop offset="0" stop-color="#f8f8f7"/>
      <stop offset="1" stop-color="#babdb6"/>
    </linearGradient>
    <linearGradient id="i">
      <stop offset="0" stop-color="#fff" stop-opacity="0"/>
      <stop offset=".5" stop-color="#fff"/>
      <stop offset="1" stop-color="#fff" stop-opacity="0"/>
    </linearGradient>
    <linearGradient id="h">
      <stop offset="0" stop-color="#eeeeec"/>
      <stop offset="1" stop-color="#fff"/>
    </linearGradient>
    <linearGradient id="f">
      <stop offset="0"/>
      <stop offset="1" stop-opacity="0"/>
    </linearGradient>
    <linearGradient id="g">
      <stop offset="0" stop-color="#f2f4f1"/>
      <stop offset="1" stop-color="#d3d7cf"/>
    </linearGradient>
    <linearGradient id="e">
      <stop offset="0" stop-color="#fff"/>
      <stop offset="1" stop-color="#dcdcdc"/>
    </linearGradient>
    <linearGradient id="d">
      <stop offset="0"/>
      <stop offset="1" stop-opacity="0"/>
    </linearGradient>
    <linearGradient id="c">
      <stop offset="0" stop-color="#ef2929"/>
      <stop offset="1" stop-color="#ef2929" stop-opacity="0"/>
    </linearGradient>
    <linearGradient id="a">
      <stop offset="0" stop-color="#204a87" stop-opacity="0"/>
      <stop offset=".5" stop-color="#204a87"/>
      <stop offset="1" stop-color="#204a87" stop-opacity="0"/>
    </linearGradient>
    <linearGradient id="b">
      <stop offset="0"/>
      <stop offset="1" stop-opacity="0"/>
    </linearGradient>
    <radialGradient xlink:href="#f" id="q" gradientUnits="userSpaceOnUse" gradientTransform="matrix(1 0 0 .39928 0 23.916)" cx="24.25" cy="39.81" fx="24.25" fy="39.81" r="17.38"/>
    <radialGradient xlink:href="#g" id="r" gradientUnits="userSpaceOnUse" gradientTransform="matrix(1.04521 0 0 .98974 -41.108 -11.647)" cx="24.5" cy="29.5" fx="24.5" fy="29.5" r="15.1"/>
    <linearGradient xlink:href="#h" id="s" gradientUnits="userSpaceOnUse" gradientTransform="matrix(.48215 0 0 .45656 -27.118 4.267)" x1="24.1" y1="12.6" x2="24.1" y2="34.1"/>
    <linearGradient xlink:href="#i" id="t" gradientUnits="userSpaceOnUse" gradientTransform="matrix(.52416 0 0 .52416 2.41 3.28)" x1="38.29" y1="6.72" x2="39.44" y2="8.16"/>
    <linearGradient xlink:href="#i" id="u" gradientUnits="userSpaceOnUse" gradientTransform="matrix(.52416 0 0 .52416 3.53 3.248)" x1="8.12" y1="7.93" x2="9.07" y2="6.78"/>
    <radialGradient xlink:href="#f" id="k" gradientUnits="userSpaceOnUse" gradientTransform="matrix(1 0 0 .39928 0 23.916)" cx="24.25" cy="39.81" fx="24.25" fy="39.81" r="17.38"/>
    <radialGradient xlink:href="#g" id="m" gradientUnits="userSpaceOnUse" gradientTransform="matrix(1.04521 0 0 .98974 -41.108 -11.647)" cx="24.5" cy="29.5" fx="24.5" fy="29.5" r="15.1"/>
    <linearGradient xlink:href="#h" id="n" gradientUnits="userSpaceOnUse" gradientTransform="matrix(.48215 0 0 .45656 -27.118 4.267)" x1="24.1" y1="12.6" x2="24.1" y2="34.1"/>
    <linearGradient xlink:href="#i" id="o" gradientUnits="userSpaceOnUse" gradientTransform="matrix(.52416 0 0 .52416 2.41 3.28)" x1="38.29" y1="6.72" x2="39.44" y2="8.16"/>
    <linearGradient xlink:href="#i" id="p" gradientUnits="userSpaceOnUse" gradientTransform="matrix(.52416 0 0 .52416 3.53 3.248)" x1="8.12" y1="7.93" x2="9.07" y2="6.78"/>
    <radialGradient xlink:href="#f" id="v" gradientUnits="userSpaceOnUse" gradientTransform="matrix(1 0 0 .39928 0 23.916)" cx="24.25" cy="39.81" fx="24.25" fy="39.81" r="17.38"/>
    <radialGradient xlink:href="#g" id="w" gradientUnits="userSpaceOnUse" gradientTransform="matrix(.95075 0 0 .98974 -7.702 -11.432)" cx="32.12" cy="31.89" fx="32.12" fy="31.89" r="15.1"/>
    <linearGradient xlink:href="#h" id="x" gradientUnits="userSpaceOnUse" gradientTransform="matrix(.43857 0 0 .45656 5.024 4.482)" x1="24.1" y1="12.6" x2="24.1" y2="34.1"/>
    <linearGradient xlink:href="#i" id="y" gradientUnits="userSpaceOnUse" gradientTransform="matrix(.52416 0 0 .52416 16.24 3.168)" x1="38.29" y1="6.72" x2="39.44" y2="8.16"/>
    <linearGradient xlink:href="#i" id="z" gradientUnits="userSpaceOnUse" gradientTransform="matrix(.52416 0 0 .52416 4.61 3.198)" x1="8.12" y1="7.93" x2="9.07" y2="6.78"/>
    <radialGradient xlink:href="#j" id="l" cx="15.49" cy="6.25" fx="15.49" fy="6.25" r="10.49" gradientTransform="matrix(2.20327 0 0 .98135 -18.638 -.28)" gradientUnits="userSpaceOnUse"/>
  </defs>
  <g transform="translate(-3 -2.994)">
    <path transform="matrix(.52416 0 0 .27388 2.448 12.696)" d="M41.63 39.81a17.38 6.94 0 1 1-34.75 0 17.38 6.94 0 1 1 34.75 0z" fill="url(#k)" opacity=".39"/>
    <rect ry="2.57" rx="2.45" y="4.51" x="5.5" height="20.94" width="19.99" fill="url(#l)" stroke="#888a85"/>
    <rect transform="scale(-1 1)" width="14.07" height="13.33" x="-22.54" y="7.23" rx="1.72" ry="1.63" fill="url(#m)" stroke="url(#n)"/>
    <rect width="18.02" height="19" x="6.49" y="5.5" rx="1.56" ry="1.56" fill="none" opacity=".49" stroke="#fff"/>
    <path d="M6.98 22.77c-.06.83.48 1.32 1.4 1.25l.89-3.17-.65-.38-1.64 2.3zM24.05 23c-.18.94-.88 1.05-1.71 1.05l-.82-3.08.67-.41L24.05 23z" fill="#fff" opacity=".49"/>
    <path d="M24.03 7.08c-.05-.58-.38-1.03-1.01-1.08l-.87 1.14.61.64 1.27-.7z" fill="url(#o)"/>
    <path d="M6.9 6.98c.14-.51.55-.95 1.12-.98l.76 1.19-.56.63-1.32-.84z" fill="url(#p)"/>
  </g>
  <path d="M42.44 25.373a5.23 5.23 0 1 1-10.459 0 5.23 5.23 0 1 1 10.459 0z" fill="none" stroke-width="2.0018383" stroke="#204a87"/>
  <g transform="translate(20.005 -2.943)">
    <path d="M41.63 39.81a17.38 6.94 0 1 1-34.75 0 17.38 6.94 0 1 1 34.75 0z" transform="matrix(.52416 0 0 .27388 2.448 12.696)" fill="url(#q)" opacity=".39"/>
    <rect width="19.99" height="20.94" x="5.5" y="4.51" rx="2.45" ry="2.57" fill="#babdb6" stroke="#888a85"/>
    <rect ry="1.63" rx="1.72" y="7.23" x="-22.54" height="13.33" width="14.07" transform="scale(-1 1)" fill="url(#r)" stroke="url(#s)"/>
    <rect ry="1.56" rx="1.56" y="5.5" x="6.49" height="19" width="18.02" fill="none" opacity=".49" stroke="#fff"/>
    <path d="M6.98 22.77c-.06.83.48 1.32 1.4 1.25l.89-3.17-.65-.38-1.64 2.3zM24.05 23c-.18.94-.88 1.05-1.71 1.05l-.82-3.08.67-.41L24.05 23z" fill="#fff" opacity=".49"/>
    <path d="M24.03 7.08c-.05-.58-.38-1.03-1.01-1.08l-.87 1.14.61.64 1.27-.7z" fill="url(#t)"/>
    <path d="M6.9 6.98c.14-.51.55-.95 1.12-.98l.76 1.19-.56.63-1.32-.84z" fill="url(#u)"/>
  </g>
  <g transform="matrix(1 0 0 1.00541 -2.985 19.973)">
    <path d="M41.63 39.81a17.38 6.94 0 1 1-34.75 0 17.38 6.94 0 1 1 34.75 0z" transform="matrix(.52416 0 0 .27388 2.448 12.696)" fill="url(#v)" opacity=".39"/>
    <rect width="33.16" height="20.94" x="6.37" y="4.51" rx="2.57" ry="2.55" fill="#babdb6" stroke="#888a85"/>
    <rect ry="1.31" rx="1.32" y="7.45" x="9.19" height="13.05" width="27.3" fill="url(#w)" stroke="url(#x)"/>
    <rect ry="1.55" rx="1.56" y="5.44" x="7.36" height="19" width="31.22" fill="none" opacity=".49" stroke="#fff"/>
    <path d="M7.96 22.93c-.04.67.77 1.05 1.13 1.01l1.03-3.06-.77-.58-1.39 2.63zM38.52 22.84c-.19.94-.89 1.05-1.72 1.05l-.82-3.08.67-.41 1.87 2.44z" fill="#fff" opacity=".49"/>
    <path d="M37.86 6.97c-.05-.58-.38-1.03-1.01-1.08l-.87 1.14.61.64 1.27-.7z" fill="url(#y)"/>
    <path d="M7.98 6.93c.15-.51.55-.95 1.12-.98l.76 1.19-.56.63-1.32-.84z" fill="url(#z)"/>
  </g>
  <path d="M17.62 8.94l-2.24 5.7c-.22.55-.49.96-.81 1.23-.32.28-.7.42-1.12.42-.16 0-.32-.02-.49-.06v-.9c.19.06.36.09.52.09.19 0 .36-.06.52-.17.16-.11.28-.28.38-.51l.35-.8-1.98-5h1.05l1.29 3.75c.02.06.05.19.09.39h.03c.05-.21.08-.34.1-.39l1.33-3.75h.98M39.71 8.94l-1.67 2.52 1.67 2.48h-1.1l-1.16-1.95-1.19 1.95h-1.08l1.73-2.46-1.62-2.54h1.09l1.11 2.04 1.19-2.04h1.03M14.39 38.05c-.54.3-1.2.45-1.99.45-.99 0-1.79-.32-2.39-.96-.59-.65-.89-1.49-.89-2.53 0-1.11.34-2.02 1.02-2.71.69-.7 1.54-1.04 2.56-1.04.68 0 1.25.1 1.69.29v1.03c-.52-.3-1.09-.45-1.7-.45-.77 0-1.39.25-1.86.77-.48.51-.72 1.19-.72 2.06 0 .81.22 1.47.66 1.95.45.48 1.03.72 1.77.72.7 0 1.32-.17 1.85-.5v.92m3.74.26c-.2.1-.47.15-.79.15-.47 0-.81-.12-1.05-.37-.23-.26-.34-.64-.34-1.15v-2.81h-.84v-.75h.84v-1.2l.94-.29v1.49h1.24v.75h-1.24v2.63c0 .33.06.56.17.7.11.14.3.21.58.21.18 0 .34-.06.49-.16v.8m3.88-3.97c-.17-.12-.38-.17-.65-.17-.31 0-.86.14-1.07.43-.21.28-.32.66-.32 1.13v2.65h-.94v-5h.94v.99c.12-.36.29-.62.53-.8.23-.19.76-.28 1.03-.28.21 0 .37.02.48.07v.98m2 4.04h-.95v-7.41h.95v7.41" style="line-height:100" font-family="Segoe" font-size="10"/>
  <rect width="33.7" height="22.14" x="3.15" y="23.93" rx="2.9" ry="2.9" fill="none" stroke-width="2" stroke="#204a87"/>
  <rect ry="2.72" rx="2.72" y="1.12" x="25.06" height="21.78" width="20.88" fill="none" stroke-width="2" stroke="#204a87"/>
</svg>

<svg xmlns:svg="http://www.w3.org/2000/svg" xmlns="http://www.w3.org/2000/svg" xmlns:xlink="http://www.w3.org/1999/xlink" width="48" height="48" id="svg11300"><defs id="defs3"><linearGradient id="linearGradient2461"><stop offset="0" id="stop2463" style="stop-color:#f8f8f7;stop-opacity:1"/><stop offset="1" id="stop2465" style="stop-color:#babdb6;stop-opacity:1"/></linearGradient><linearGradient id="linearGradient4750"><stop offset="0" id="stop4752" style="stop-color:#ffffff;stop-opacity:0"/><stop id="stop4758" offset="0.5" style="stop-color:#ffffff;stop-opacity:1"/><stop offset="1" id="stop4754" style="stop-color:#ffffff;stop-opacity:0"/></linearGradient><linearGradient id="linearGradient4728"><stop offset="0" id="stop4730" style="stop-color:#eeeeec;stop-opacity:1"/><stop offset="1" id="stop4732" style="stop-color:#ffffff;stop-opacity:1"/></linearGradient><linearGradient id="linearGradient4720"><stop offset="0" id="stop4722" style="stop-color:#000000;stop-opacity:1"/><stop offset="1" id="stop4724" style="stop-color:#000000;stop-opacity:0"/></linearGradient><linearGradient id="linearGradient4710"><stop offset="0" id="stop4712" style="stop-color:#f2f4f1;stop-opacity:1"/><stop offset="1" id="stop4714" style="stop-color:#d3d7cf;stop-opacity:1"/></linearGradient><linearGradient id="linearGradient11520"><stop id="stop11522" offset="0" style="stop-color:#ffffff;stop-opacity:1"/><stop id="stop11524" offset="1" style="stop-color:#dcdcdc;stop-opacity:1"/></linearGradient><linearGradient id="linearGradient11508"><stop id="stop11510" offset="0" style="stop-color:#000000;stop-opacity:1"/><stop id="stop11512" offset="1" style="stop-color:#000000;stop-opacity:0"/></linearGradient><linearGradient id="linearGradient11494"><stop id="stop11496" offset="0" style="stop-color:#ef2929;stop-opacity:1"/><stop id="stop11498" offset="1" style="stop-color:#ef2929;stop-opacity:0"/></linearGradient><linearGradient id="linearGradient11415"><stop id="stop11417" offset="0" style="stop-color:#204a87;stop-opacity:0"/><stop offset="0.5" id="stop11423" style="stop-color:#204a87;stop-opacity:1"/><stop id="stop11419" offset="1" style="stop-color:#204a87;stop-opacity:0"/></linearGradient><linearGradient id="linearGradient11399"><stop id="stop11401" offset="0" style="stop-color:#000000;stop-opacity:1"/><stop id="stop11403" offset="1" style="stop-color:#000000;stop-opacity:0"/></linearGradient><linearGradient gradientTransform="translate(-60.28571,-0.285714)" y2="34.46" x2="43.62" y1="3.77" x1="15.83" gradientUnits="userSpaceOnUse" id="linearGradient11425" xlink:href="#linearGradient11415"/><linearGradient gradientTransform="translate(-60.57143,0.000000)" y2="39.03" x2="35.68" y1="9.35" x1="9.7" gradientUnits="userSpaceOnUse" id="linearGradient11427" xlink:href="#linearGradient11415"/><linearGradient y2="33.46" x2="26.76" y1="19.77" x1="13.27" gradientTransform="translate(-60.85714,0.428571)" gradientUnits="userSpaceOnUse" id="linearGradient11439" xlink:href="#linearGradient11415"/><radialGradient r="8.5" fy="39.14" fx="12.07" cy="39.14" cx="12.07" gradientTransform="matrix(1.000000,0.000000,0.000000,0.487395,0.000000,20.06483)" gradientUnits="userSpaceOnUse" id="radialGradient11441" xlink:href="#linearGradient11399"/><radialGradient gradientTransform="matrix(1.243453,2.106784e-16,-2.106784e-16,1.243453,-6.713754,-3.742847)" gradientUnits="userSpaceOnUse" r="3.83" fy="15.05" fx="27.58" cy="15.05" cx="27.58" id="radialGradient11500" xlink:href="#linearGradient11494"/><radialGradient r="3.83" fy="16.05" fx="27.58" cy="16.05" cx="27.58" gradientTransform="matrix(1.243453,2.106784e-16,-2.106784e-16,1.243453,-6.713754,-3.742847)" gradientUnits="userSpaceOnUse" id="radialGradient11504" xlink:href="#linearGradient11494"/><radialGradient gradientUnits="userSpaceOnUse" gradientTransform="matrix(1.000000,0.000000,0.000000,0.338462,2.166583e-14,29.48178)" r="6.57" fy="44.57" fx="30.2" cy="44.57" cx="30.2" id="radialGradient11514" xlink:href="#linearGradient11508"/><radialGradient gradientTransform="matrix(1.995058,-1.651527e-32,0.000000,1.995058,-24.32488,-35.70087)" gradientUnits="userSpaceOnUse" r="20.53" fy="35.88" fx="24.45" cy="35.88" cx="24.45" id="radialGradient11526" xlink:href="#linearGradient11520"/><radialGradient r="6.57" fy="44.57" fx="30.2" cy="44.57" cx="30.2" gradientTransform="matrix(1.000000,0.000000,0.000000,0.338462,3.185827e-15,29.48178)" gradientUnits="userSpaceOnUse" id="radialGradient11532" xlink:href="#linearGradient11508"/><radialGradient xlink:href="#linearGradient11508" id="radialGradient1348" gradientUnits="userSpaceOnUse" gradientTransform="matrix(1.000000,0.000000,0.000000,0.338462,-1.353344e-14,29.48178)" cx="30.2" cy="44.57" fx="30.2" fy="44.57" r="6.57"/><radialGradient xlink:href="#linearGradient11520" id="radialGradient1350" gradientUnits="userSpaceOnUse" gradientTransform="matrix(1.995058,-1.651527e-32,0.000000,1.995058,-24.32488,-35.70087)" cx="24.45" cy="35.88" fx="24.45" fy="35.88" r="20.53"/><radialGradient xlink:href="#linearGradient11494" id="radialGradient1352" gradientUnits="userSpaceOnUse" gradientTransform="matrix(1.243453,2.106784e-16,-2.106784e-16,1.243453,-6.713754,-3.742847)" cx="27.58" cy="16.05" fx="27.58" fy="16.05" r="3.83"/><radialGradient xlink:href="#linearGradient11494" id="radialGradient1354" gradientUnits="userSpaceOnUse" gradientTransform="matrix(1.243453,2.106784e-16,-2.106784e-16,1.243453,-6.713754,-3.742847)" cx="27.58" cy="15.05" fx="27.58" fy="15.05" r="3.83"/><radialGradient xlink:href="#linearGradient11508" id="radialGradient1356" gradientUnits="userSpaceOnUse" gradientTransform="matrix(1.000000,0.000000,0.000000,0.338462,2.220359e-14,29.48178)" cx="30.2" cy="44.57" fx="30.2" fy="44.57" r="6.57"/><radialGradient xlink:href="#linearGradient11520" id="radialGradient1366" gradientUnits="userSpaceOnUse" gradientTransform="matrix(2.049266,-1.696401e-32,0.000000,2.049266,-25.65002,-37.31089)" cx="24.45" cy="35.88" fx="24.45" fy="35.88" r="20.53"/><radialGradient xlink:href="#linearGradient4720" id="radialGradient1513" gradientUnits="userSpaceOnUse" gradientTransform="matrix(1,0,0,0.399281,8.146704e-14,23.91614)" cx="24.25" cy="39.81" fx="24.25" fy="39.81" r="17.38"/><radialGradient xlink:href="#linearGradient4710" id="radialGradient1515" gradientUnits="userSpaceOnUse" gradientTransform="matrix(1.045211,-2.149016e-16,2.269469e-16,0.989736,-41.10767,-11.64667)" cx="24.5" cy="29.5" fx="24.5" fy="29.5" r="15.1"/><linearGradient xlink:href="#linearGradient4728" id="linearGradient1517" gradientUnits="userSpaceOnUse" gradientTransform="matrix(0.482147,0,0,0.456557,-27.11755,4.266796)" x1="24.1" y1="12.6" x2="24.1" y2="34.1"/><linearGradient xlink:href="#linearGradient4750" id="linearGradient1519" gradientUnits="userSpaceOnUse" gradientTransform="matrix(0.524157,0,0,0.524157,2.40962,3.280934)" x1="38.29" y1="6.72" x2="39.44" y2="8.16"/><linearGradient xlink:href="#linearGradient4750" id="linearGradient1521" gradientUnits="userSpaceOnUse" gradientTransform="matrix(0.524157,0,0,0.524157,3.529108,3.248174)" x1="8.12" y1="7.93" x2="9.07" y2="6.78"/><radialGradient xlink:href="#linearGradient4720" id="radialGradient1523" gradientUnits="userSpaceOnUse" gradientTransform="matrix(1,0,0,0.399281,1.387778e-16,23.91614)" cx="24.25" cy="39.81" fx="24.25" fy="39.81" r="17.38"/><radialGradient xlink:href="#linearGradient4710" id="radialGradient1525" gradientUnits="userSpaceOnUse" gradientTransform="matrix(1.045211,-2.149016e-16,2.269469e-16,0.989736,-41.10767,-11.64667)" cx="24.5" cy="29.5" fx="24.5" fy="29.5" r="15.1"/><linearGradient xlink:href="#linearGradient4728" id="linearGradient1527" gradientUnits="userSpaceOnUse" gradientTransform="matrix(0.482147,0,0,0.456557,-27.11755,4.266796)" x1="24.1" y1="12.6" x2="24.1" y2="34.1"/><linearGradient xlink:href="#linearGradient4750" id="linearGradient1529" gradientUnits="userSpaceOnUse" gradientTransform="matrix(0.524157,0,0,0.524157,2.40962,3.280934)" x1="38.29" y1="6.72" x2="39.44" y2="8.16"/><linearGradient xlink:href="#linearGradient4750" id="linearGradient1531" gradientUnits="userSpaceOnUse" gradientTransform="matrix(0.524157,0,0,0.524157,3.529108,3.248174)" x1="8.12" y1="7.93" x2="9.07" y2="6.78"/><radialGradient xlink:href="#linearGradient4720" id="radialGradient1551" gradientUnits="userSpaceOnUse" gradientTransform="matrix(1,0,0,0.399281,1.474514e-16,23.91614)" cx="24.25" cy="39.81" fx="24.25" fy="39.81" r="17.38"/><radialGradient xlink:href="#linearGradient4710" id="radialGradient1553" gradientUnits="userSpaceOnUse" gradientTransform="matrix(0.950752,-2.149016e-16,2.064369e-16,0.989736,-7.702036,-11.43172)" cx="32.12" cy="31.89" fx="32.12" fy="31.89" r="15.1"/><linearGradient xlink:href="#linearGradient4728" id="linearGradient1555" gradientUnits="userSpaceOnUse" gradientTransform="matrix(0.438574,0,0,0.456557,5.023749,4.481748)" x1="24.1" y1="12.6" x2="24.1" y2="34.1"/><linearGradient xlink:href="#linearGradient4750" id="linearGradient1557" gradientUnits="userSpaceOnUse" gradientTransform="matrix(0.524157,0,0,0.524157,16.23946,3.167804)" x1="38.29" y1="6.72" x2="39.44" y2="8.16"/><linearGradient xlink:href="#linearGradient4750" id="linearGradient1559" gradientUnits="userSpaceOnUse" gradientTransform="matrix(0.524157,0,0,0.524157,4.610252,3.197544)" x1="8.12" y1="7.93" x2="9.07" y2="6.78"/><radialGradient xlink:href="#linearGradient2461" id="radialGradient2467" cx="15.49" cy="6.25" fx="15.49" fy="6.25" r="10.49" gradientTransform="matrix(2.203274,-9.403163e-17,4.212765e-17,0.981352,-18.63845,-0.280284)" gradientUnits="userSpaceOnUse"/></defs><metadata id="metadata4"/><g id="layer1"><g id="g1485" transform="translate(-3.000005,-2.99376)"><path transform="matrix(0.524157,0,0,0.273884,2.448298,12.69591)" d="M41.63 39.81A17.38 6.94 0 1 1 6.88 39.81 17.38 6.94 0 1 1 41.63 39.81z" id="path4718" style="fill:url(#radialGradient1523);opacity:0.39"/><rect ry="2.57" rx="2.45" y="4.51" x="5.5" height="20.94" width="19.99" id="rect2960" style="fill-opacity:1;fill:url(#radialGradient2467);stroke-width:1;stroke:#888a85"/><rect transform="scale(-1,1)" id="rect3835" width="14.07" height="13.33" x="-22.54" y="7.23" rx="1.72" ry="1.63" style="fill:url(#radialGradient1525);stroke-width:1;stroke:url(#linearGradient1527)"/><rect id="rect4740" width="18.02" height="19" x="6.49" y="5.5" rx="1.56" ry="1.56" style="fill:none;opacity:0.49;stroke-width:1;stroke:#fff"/><path id="path4742" d="M6.98 22.77C6.92 23.6 7.46 24.09 8.38 24.02L9.27 20.85 8.62 20.47 6.98 22.77z" style="fill:#fff;opacity:0.49"/><path d="M24.05 23C23.87 23.94 23.17 24.05 22.34 24.05L21.52 20.97 22.19 20.56 24.05 23z" id="path4744" style="fill:#fff;opacity:0.49"/><path id="path4746" d="M24.03 7.08C23.98 6.5 23.65 6.05 23.02 6L22.15 7.14 22.76 7.78 24.03 7.08z" fill="url(#linearGradient1529)"/><path d="M6.9 6.98C7.04 6.47 7.45 6.03 8.02 6L8.78 7.19 8.22 7.82 6.9 6.98z" id="path4748" fill="url(#linearGradient1531)"/></g><path id="path2455" d="M44.72 19.54A13.61 13.61 0 1 1 17.5 19.54 13.61 13.61 0 1 1 44.72 19.54z" transform="matrix(0.384226,0,0,0.384226,25.25719,17.86522)" style="fill:none;stroke-width:5.21;stroke:#204a87"/><g id="g1495" transform="translate(20.00496,-2.94313)"><path id="path1497" d="M41.63 39.81A17.38 6.94 0 1 1 6.88 39.81 17.38 6.94 0 1 1 41.63 39.81z" transform="matrix(0.524157,0,0,0.273884,2.448298,12.69591)" style="fill:url(#radialGradient1513);opacity:0.39"/><rect id="rect1499" width="19.99" height="20.94" x="5.5" y="4.51" rx="2.45" ry="2.57" style="fill:#babdb6;stroke-width:1;stroke:#888a85"/><rect ry="1.63" rx="1.72" y="7.23" x="-22.54" height="13.33" width="14.07" id="rect1501" transform="scale(-1,1)" style="fill:url(#radialGradient1515);stroke-width:1;stroke:url(#linearGradient1517)"/><rect ry="1.56" rx="1.56" y="5.5" x="6.49" height="19" width="18.02" id="rect1503" style="fill:none;opacity:0.49;stroke-width:1;stroke:#fff"/><path d="M6.98 22.77C6.92 23.6 7.46 24.09 8.38 24.02L9.27 20.85 8.62 20.47 6.98 22.77z" id="path1505" style="fill:#fff;opacity:0.49"/><path id="path1507" d="M24.05 23C23.87 23.94 23.17 24.05 22.34 24.05L21.52 20.97 22.19 20.56 24.05 23z" style="fill:#fff;opacity:0.49"/><path d="M24.03 7.08C23.98 6.5 23.65 6.05 23.02 6L22.15 7.14 22.76 7.78 24.03 7.08z" id="path1509" fill="url(#linearGradient1519)"/><path id="path1511" d="M6.9 6.98C7.04 6.47 7.45 6.03 8.02 6L8.78 7.19 8.22 7.82 6.9 6.98z" fill="url(#linearGradient1521)"/></g><g transform="matrix(1,0,0,1.005412,-2.984515,19.97269)" id="g1533"><path id="path1535" d="M41.63 39.81A17.38 6.94 0 1 1 6.88 39.81 17.38 6.94 0 1 1 41.63 39.81z" transform="matrix(0.524157,0,0,0.273884,2.448298,12.69591)" style="fill:url(#radialGradient1551);opacity:0.39"/><rect id="rect1537" width="33.16" height="20.94" x="6.37" y="4.51" rx="2.57" ry="2.55" style="fill:#babdb6;stroke-width:1;stroke:#888a85"/><rect ry="1.31" rx="1.32" y="7.45" x="9.19" height="13.05" width="27.3" id="rect1539" style="fill:url(#radialGradient1553);stroke-width:1;stroke:url(#linearGradient1555)"/><rect ry="1.55" rx="1.56" y="5.44" x="7.36" height="19" width="31.22" id="rect1541" style="fill:none;opacity:0.49;stroke-width:1;stroke:#fff"/><path d="M7.96 22.93C7.92 23.6 8.73 23.98 9.09 23.94L10.12 20.88 9.35 20.3 7.96 22.93z" id="path1543" style="fill:#fff;opacity:0.49"/><path id="path1545" d="M38.52 22.84C38.33 23.78 37.63 23.89 36.8 23.89L35.98 20.81 36.65 20.4 38.52 22.84z" style="fill:#fff;opacity:0.49"/><path d="M37.86 6.97C37.81 6.39 37.48 5.94 36.85 5.89L35.98 7.03 36.59 7.67 37.86 6.97z" id="path1547" fill="url(#linearGradient1557)"/><path id="path1549" d="M7.98 6.93C8.13 6.42 8.53 5.98 9.1 5.95L9.86 7.14 9.3 7.77 7.98 6.93z" fill="url(#linearGradient1559)"/></g><path d="M17.62 8.94L15.38 14.64C15.16 15.19 14.89 15.6 14.57 15.87 14.25 16.15 13.87 16.29 13.45 16.29 13.29 16.29 13.13 16.27 12.96 16.23L12.96 15.33C13.15 15.39 13.32 15.42 13.48 15.42 13.67 15.42 13.84 15.36 14 15.25 14.16 15.14 14.28 14.97 14.38 14.74L14.73 13.94 12.75 8.94 13.8 8.94 15.09 12.69C15.11 12.75 15.14 12.88 15.18 13.08L15.21 13.08C15.26 12.87 15.29 12.74 15.31 12.69L16.64 8.94 17.62 8.94" id="text1561" style="fill:#000;font-family:Segoe;font-size:10;line-height:100;text-anchor:start;writing-mode:lr-tb"/><path d="M39.71 8.94L38.04 11.46 39.71 13.94 38.61 13.94 37.45 11.99 36.26 13.94 35.18 13.94 36.91 11.48 35.29 8.94 36.38 8.94 37.49 10.98 38.68 8.94 39.71 8.94" id="text1565" style="fill:#000;font-family:Segoe;font-size:10;line-height:100;text-anchor:start;writing-mode:lr-tb"/><path d="M14.39 38.05C13.85 38.35 13.19 38.5 12.4 38.5 11.41 38.5 10.61 38.18 10.01 37.54 9.42 36.89 9.12 36.05 9.12 35.01 9.12 33.9 9.46 32.99 10.14 32.3 10.83 31.6 11.68 31.26 12.7 31.26 13.38 31.26 13.95 31.36 14.39 31.55L14.39 32.58C13.87 32.28 13.3 32.13 12.69 32.13 11.92 32.13 11.3 32.38 10.83 32.9 10.35 33.41 10.11 34.09 10.11 34.96 10.11 35.77 10.33 36.43 10.77 36.91 11.22 37.39 11.8 37.63 12.54 37.63 13.24 37.63 13.86 37.46 14.39 37.13L14.39 38.05M18.13 38.31C17.93 38.41 17.66 38.46 17.34 38.46 16.87 38.46 16.53 38.34 16.29 38.09 16.06 37.83 15.95 37.45 15.95 36.94L15.95 34.13 15.11 34.13 15.11 33.38 15.95 33.38 15.95 32.18 16.89 31.89 16.89 33.38 18.13 33.38 18.13 34.13 16.89 34.13 16.89 36.76C16.89 37.09 16.95 37.32 17.06 37.46 17.17 37.6 17.36 37.67 17.64 37.67 17.82 37.67 17.98 37.61 18.13 37.51L18.13 38.31M22.01 34.34C21.84 34.22 21.63 34.17 21.36 34.17 21.05 34.17 20.5 34.31 20.29 34.6 20.08 34.88 19.97 35.26 19.97 35.73L19.97 38.38 19.03 38.38 19.03 33.38 19.97 33.38 19.97 34.37C20.09 34.01 20.26 33.75 20.5 33.57 20.73 33.38 21.26 33.29 21.53 33.29 21.74 33.29 21.9 33.31 22.01 33.36L22.01 34.34M24.01 38.38L23.06 38.38 23.06 30.97 24.01 30.97 24.01 38.38" id="text1569" style="fill:#000;font-family:Segoe;font-size:10;line-height:100;text-anchor:start;writing-mode:lr-tb"/><rect id="rect1576" width="33.7" height="22.14" x="3.15" y="23.93" rx="2.9" ry="2.9" style="fill:none;stroke-width:2;stroke:#204a87"/><rect ry="2.72" rx="2.72" y="1.12" x="25.06" height="21.78" width="20.88" id="rect2451" style="fill:none;stroke-width:2;stroke:#204a87"/></g></svg>
